; generated by PrusaSlicer 2.5.0+win64 on 2023-04-05 at 12:08:33 UTC


;
;
; 

; external perimeters extrusion width = 0.45mm
; perimeters extrusion width = 0.45mm
; infill extrusion width = 0.45mm
; solid infill extrusion width = 0.45mm
; top infill extrusion width = 0.40mm
; first layer extrusion width = 0.42mm

M73 P0 R17
M73 Q0 S17
M201 X1000 Y1000 Z200 E5000 ; sets maximum accelerations, mm/sec^2
M203 X200 Y200 Z12 E120 ; sets maximum feedrates, mm / sec
M204 P1250 R1250 T1250 ; sets acceleration (P, T) and retract acceleration (R), mm/sec^2
M205 X8.00 Y8.00 Z0.40 E4.50 ; sets the jerk limits, mm/sec
M205 S0 T0 ; sets the minimum extruding and travel feed rate, mm/sec
M107
;TYPE:Custom
M862.3 P "MK3S" ; printer model check
M862.1 P0.4 ; nozzle diameter check
M115 U3.11.0 ; tell printer latest fw version
G90 ; use absolute coordinates
M83 ; extruder relative mode
M104 S230 ; set extruder temp
M140 S85 ; set bed temp
M190 S85 ; wait for bed temp
M109 S230 ; wait for extruder temp
G28 W ; home all without mesh bed level
G80 ; mesh bed leveling

G1 Z0.2 F720
G1 Y-3 F1000 ; go outside print area
G92 E0
G1 X60 E9 F1000 ; intro line
G1 X100 E12.5 F1000 ; intro line

G92 E0
M221 S95

; Don't change E values below. Excessive value can damage the printer.
M907 E430 ; set extruder motor current
G21 ; set units to millimeters
G90 ; use absolute coordinates
M83 ; use relative distances for extrusion
M900 K0.08 ; Filament gcode LA 1.5
M900 K45 ; Filament gcode LA 1.0
M107
;LAYER_CHANGE
;Z:0.2
;HEIGHT:0.2
;BEFORE_LAYER_CHANGE
G92 E0.0
;0.2


G1 E-1 F2100
G1 Z.2 F720
;AFTER_LAYER_CHANGE
;0.2
G1 Z.4
G1 X103.015 Y84.193 F10800
G1 Z.2 F720
G1 E1 F2100
M204 S800
;TYPE:Skirt/Brim
;WIDTH:0.42
G1 F1200
G1 X104.06 Y83.317 E.04278
G1 X105 Y83.123 E.03008
G1 X145 Y83.123 E1.25417
G1 X146.307 Y83.515 E.04278
G1 X147.183 Y84.56 E.04278
G1 X147.377 Y85.5 E.03008
G1 X147.377 Y124.5 E1.22282
G1 X146.985 Y125.807 E.04278
M73 P1 R17
M73 Q1 S17
G1 X145.94 Y126.683 E.04278
G1 X145 Y126.877 E.03008
G1 X105 Y126.877 E1.25417
G1 X103.693 Y126.485 E.04278
G1 X102.817 Y125.44 E.04278
G1 X102.623 Y124.5 E.03008
G1 X102.623 Y85.5 E1.22282
G1 X102.997 Y84.25 E.0409
M204 S1000
; printing object horn_test_v1.stl id:0 copy 0
;WIPE_START
G1 F8640
G1 X104.06 Y83.317 E-.32671
G1 X105 Y83.123 E-.22155
G1 X106.74 Y83.123 E-.40174
;WIPE_END
G1 E-.05 F2100
G1 Z.4 F720
G1 X144.213 Y123.713 F10800
G1 Z.2 F720
G1 E1 F2100
M204 S800
;TYPE:Perimeter
;WIDTH:0.419999
G1 F1200
G1 X123.779 Y123.713 E.64069
;WIDTH:0.448417
G1 X123.2 Y123.699 E.01954
;WIDTH:0.454772
G1 X122.152 Y123.713 E.03588
;WIDTH:0.419999
G1 X105.787 Y123.713 E.51311
G1 X105.787 Y86.287 E1.17346
G1 X144.213 Y86.287 E1.20481
G1 X144.213 Y91.881 E.1754
M73 P2 R17
M73 Q2 S17
G1 X144.213 Y123.653 E.99618
M204 S1000
G1 X144.59 Y124.09 F10800
M204 S800
;TYPE:External perimeter
G1 F1200
G1 X105.41 Y124.09 E1.22846
G1 X105.41 Y85.91 E1.19711
G1 X144.59 Y85.91 E1.22846
G1 X144.59 Y124.03 E1.19522
M204 S1000
G1 X144.203 Y123.988 F10800
;WIPE_START
M73 P3 R16
M73 Q3 S17
G1 F8640
G1 X140.476 Y124.036 E-.95
;WIPE_END
G1 E-.05 F2100
G1 Z.4 F720
G1 X131.659 Y106.5 F10800
G1 Z.2 F720
M73 Q3 S16
G1 E1 F2100
M204 S800
;TYPE:Perimeter
G1 F1200
G1 X137.024 Y111.46 E.22909
G1 X137.381 Y111.866 E.01696
G1 X137.637 Y112.296 E.01568
G1 X137.812 Y112.765 E.01568
G1 X137.9 Y113.257 E.01568
G1 X137.899 Y113.72 E.01452
G1 X137.808 Y114.249 E.01683
G1 X137.631 Y114.717 E.01569
G1 X137.373 Y115.145 E.01568
G1 X137.042 Y115.521 E.01568
G1 X136.68 Y115.808 E.01452
G1 X136.209 Y116.066 E.01683
G1 X135.733 Y116.219 E.01569
G1 X135.237 Y116.284 E.01568
G1 X134.737 Y116.259 E.01568
G1 X134.308 Y116.165 E.01379
G1 X127.33 Y113.999 E.22909
G1 X126.31 Y118.502 E.14474
G1 X125.716 Y121.125 E.08434
G1 X125.543 Y121.638 E.01696
G1 X125.299 Y122.074 E.01568
G1 X124.98 Y122.46 E.01568
G1 X124.598 Y122.782 E.01568
G1 X124.164 Y123.031 E.01568
G1 X123.728 Y123.187 E.01452
;WIDTH:0.448417
G1 X123.2 Y123.293 E.01819
;WIDTH:0.454772
G1 X122.696 Y123.287 E.01724
G1 X122.245 Y123.179 E.01588
;WIDTH:0.419999
G1 X121.744 Y122.987 E.01683
G1 X121.32 Y122.722 E.01569
G1 X120.949 Y122.386 E.01568
G1 X120.645 Y121.989 E.01568
G1 X120.417 Y121.544 E.01568
G1 X120.284 Y121.125 E.01379
G1 X118.67 Y113.999 E.22909
G1 X111.692 Y116.165 E.22909
G1 X111.162 Y116.271 E.01696
G1 X110.662 Y116.278 E.01568
G1 X110.169 Y116.195 E.01568
G1 X109.698 Y116.025 E.01568
G1 X109.266 Y115.774 E.01568
G1 X108.885 Y115.45 E.01568
G1 X108.569 Y115.062 E.01568
G1 X108.327 Y114.625 E.01568
G1 X108.167 Y114.151 E.01568
G1 X108.094 Y113.656 E.01568
G1 X108.111 Y113.156 E.01568
G1 X108.217 Y112.667 E.01568
G1 X108.409 Y112.205 E.01568
G1 X108.68 Y111.785 E.01568
G1 X108.976 Y111.46 E.01379
G1 X114.341 Y106.5 E.22909
G1 X108.976 Y101.54 E.22909
G1 X108.619 Y101.134 E.01696
G1 X108.363 Y100.704 E.01568
G1 X108.188 Y100.235 E.01568
G1 X108.1 Y99.743 E.01568
G1 X108.101 Y99.28 E.01452
G1 X108.192 Y98.751 E.01683
G1 X108.369 Y98.283 E.01569
G1 X108.627 Y97.855 E.01568
G1 X108.958 Y97.479 E.01568
G1 X109.32 Y97.192 E.01452
G1 X109.791 Y96.934 E.01683
G1 X110.267 Y96.781 E.01569
G1 X110.763 Y96.716 E.01568
G1 X111.263 Y96.741 E.01568
G1 X111.692 Y96.835 E.01379
G1 X118.67 Y99.001 E.22909
G1 X120.284 Y91.875 E.22909
G1 X120.457 Y91.362 E.01696
G1 X120.701 Y90.926 E.01568
G1 X121.02 Y90.54 E.01568
G1 X121.402 Y90.218 E.01568
G1 X121.836 Y89.969 E.01568
G1 X122.307 Y89.801 E.01568
G1 X122.801 Y89.721 E.01568
G1 X123.301 Y89.73 E.01568
G1 X123.791 Y89.828 E.01568
G1 X124.256 Y90.013 E.01568
G1 X124.68 Y90.278 E.01568
G1 X125.051 Y90.614 E.01568
G1 X125.333 Y90.981 E.01452
G1 X125.583 Y91.456 E.01683
G1 X125.716 Y91.875 E.01379
G1 X127.33 Y99.001 E.22909
G1 X134.308 Y96.835 E.22909
G1 X134.838 Y96.729 E.01696
G1 X135.338 Y96.722 E.01568
G1 X135.831 Y96.805 E.01568
G1 X136.302 Y96.975 E.01568
G1 X136.734 Y97.226 E.01568
G1 X137.115 Y97.55 E.01568
G1 X137.408 Y97.909 E.01452
G1 X137.673 Y98.375 E.01683
G1 X137.833 Y98.849 E.01569
G1 X137.906 Y99.344 E.01568
G1 X137.889 Y99.844 E.01568
G1 X137.783 Y100.333 E.01568
G1 X137.591 Y100.795 E.01568
G1 X137.32 Y101.215 E.01568
G1 X137.024 Y101.54 E.01379
G1 X131.703 Y106.459 E.22721
M204 S1000
G1 X131.104 Y106.5 F10800
M204 S800
;TYPE:External perimeter
G1 F1200
G1 X136.768 Y111.737 E.24187
G1 X137.061 Y112.065 E.01378
G1 X137.286 Y112.434 E.01357
G1 X137.442 Y112.838 E.01357
G1 X137.523 Y113.263 E.01357
G1 X137.527 Y113.663 E.01255
G1 X137.453 Y114.122 E.01457
G1 X137.304 Y114.528 E.01357
G1 X137.085 Y114.901 E.01357
G1 X136.803 Y115.229 E.01356
G1 X136.492 Y115.481 E.01255
G1 X136.088 Y115.709 E.01456
G1 X135.677 Y115.846 E.01357
G1 X135.249 Y115.907 E.01357
G1 X134.816 Y115.89 E.01357
G1 X134.42 Y115.805 E.01273
G1 X127.052 Y113.518 E.24187
G1 X125.348 Y121.042 E.24187
G1 X125.211 Y121.46 E.01378
G1 X125.004 Y121.839 E.01357
G1 X124.732 Y122.176 E.01357
G1 X124.405 Y122.459 E.01356
G1 X124.032 Y122.678 E.01357
G1 X123.656 Y122.817 E.01255
G1 X123.2 Y122.902 E.01457
G1 X122.767 Y122.899 E.01357
G1 X122.374 Y122.825 E.01255
G1 X121.938 Y122.664 E.01456
G1 X121.568 Y122.439 E.01357
G1 X121.245 Y122.152 E.01356
G1 X120.978 Y121.811 E.01357
G1 X120.776 Y121.428 E.01357
G1 X120.652 Y121.042 E.01273
G1 X118.948 Y113.518 E.24187
G1 X111.58 Y115.805 E.24187
G1 X111.15 Y115.895 E.01378
M73 Q4 S16
G1 X110.718 Y115.905 E.01357
G1 X110.29 Y115.838 E.01357
G1 X109.882 Y115.696 E.01357
G1 X109.505 Y115.483 E.01357
G1 X109.173 Y115.206 E.01357
G1 X108.895 Y114.874 E.01356
G1 X108.682 Y114.498 E.01357
G1 X108.539 Y114.089 E.01357
G1 X108.471 Y113.662 E.01357
G1 X108.481 Y113.229 E.01357
M73 P4 R16
G1 X108.568 Y112.806 E.01357
G1 X108.729 Y112.404 E.01357
G1 X108.96 Y112.038 E.01357
G1 X109.232 Y111.737 E.01272
G1 X114.896 Y106.5 E.24187
G1 X109.232 Y101.263 E.24187
G1 X108.939 Y100.935 E.01378
G1 X108.714 Y100.566 E.01357
G1 X108.558 Y100.162 E.01357
G1 X108.477 Y99.737 E.01357
G1 X108.473 Y99.337 E.01255
G1 X108.547 Y98.878 E.01457
G1 X108.696 Y98.472 E.01357
G1 X108.915 Y98.099 E.01357
G1 X109.197 Y97.771 E.01356
G1 X109.508 Y97.519 E.01255
G1 X109.912 Y97.291 E.01456
G1 X110.323 Y97.154 E.01357
G1 X110.829 Y97.095 E.01597
G1 X111.184 Y97.11 E.01113
G1 X111.58 Y97.195 E.01272
G1 X118.948 Y99.482 E.24187
G1 X120.652 Y91.958 E.24187
G1 X120.789 Y91.54 E.01378
G1 X120.996 Y91.161 E.01357
G1 X121.268 Y90.824 E.01357
G1 X121.595 Y90.541 E.01357
G1 X121.968 Y90.322 E.01357
G1 X122.374 Y90.172 E.01357
G1 X122.801 Y90.098 E.01357
G1 X123.233 Y90.101 E.01357
G1 X123.658 Y90.181 E.01357
G1 X124.062 Y90.336 E.01357
G1 X124.432 Y90.561 E.01357
G1 X124.755 Y90.848 E.01357
G1 X125.003 Y91.163 E.01255
G1 X125.224 Y91.571 E.01456
G1 X125.348 Y91.958 E.01273
G1 X127.052 Y99.482 E.24187
G1 X134.42 Y97.195 E.24187
G1 X134.85 Y97.105 E.01378
G1 X135.282 Y97.095 E.01357
G1 X135.71 Y97.162 E.01357
G1 X136.118 Y97.304 E.01357
G1 X136.495 Y97.517 E.01357
G1 X136.827 Y97.794 E.01357
G1 X137.084 Y98.101 E.01255
G1 X137.318 Y98.502 E.01456
G1 X137.461 Y98.911 E.01357
G1 X137.529 Y99.338 E.01357
G1 X137.519 Y99.771 E.01357
G1 X137.432 Y100.194 E.01357
G1 X137.271 Y100.596 E.01357
G1 X137.04 Y100.962 E.01357
G1 X136.768 Y101.263 E.01272
G1 X131.148 Y106.459 E.23999
M204 S1000
G1 X131.492 Y106.598 F10800
;WIPE_START
G1 F8640
G1 X134.147 Y109.276 E-.95
;WIPE_END
G1 E-.05 F2100
G1 Z.4 F720
G1 X143.335 Y86.4 F10800
G1 Z.2 F720
G1 E1 F2100
M204 S800
;TYPE:Solid infill
;WIDTH:0.42142
G1 F1200
G1 X143.93 Y86.996 E.02651
G1 X143.93 Y87.531 E.01685
G1 X142.969 Y86.57 E.04278
G1 X142.434 Y86.57 E.01685
G1 X143.93 Y88.066 E.06661
G1 X143.93 Y88.602 E.01685
G1 X141.898 Y86.57 E.09043
G1 X141.363 Y86.57 E.01685
G1 X143.93 Y89.137 E.11426
G1 X143.93 Y89.672 E.01685
G1 X140.828 Y86.57 E.13808
G1 X140.293 Y86.57 E.01685
G1 X143.93 Y90.207 E.1619
G1 X143.93 Y90.743 E.01685
G1 X139.757 Y86.57 E.18573
G1 X139.222 Y86.57 E.01685
G1 X143.93 Y91.278 E.20955
G1 X143.93 Y91.813 E.01685
G1 X138.687 Y86.57 E.23338
G1 X138.151 Y86.57 E.01685
G1 X143.93 Y92.349 E.2572
G1 X143.93 Y92.884 E.01685
G1 X137.616 Y86.57 E.28103
G1 X137.081 Y86.57 E.01685
G1 X143.93 Y93.419 E.30485
G1 X143.93 Y93.954 E.01685
G1 X136.546 Y86.57 E.32868
G1 X136.01 Y86.57 E.01685
G1 X143.93 Y94.49 E.3525
G1 X143.93 Y95.025 E.01685
G1 X135.475 Y86.57 E.37633
G1 X134.94 Y86.57 E.01685
G1 X143.93 Y95.56 E.40015
G1 X143.93 Y96.096 E.01685
M73 P5 R16
M73 Q5 S16
G1 X134.404 Y86.57 E.42398
G1 X133.869 Y86.57 E.01685
G1 X143.93 Y96.631 E.4478
G1 X143.93 Y97.166 E.01685
G1 X133.334 Y86.57 E.47162
G1 X132.799 Y86.57 E.01685
G1 X143.93 Y97.701 E.49545
G1 X143.93 Y98.237 E.01685
G1 X132.263 Y86.57 E.51927
G1 X131.728 Y86.57 E.01685
G1 X143.93 Y98.772 E.5431
G1 X143.93 Y99.307 E.01685
G1 X131.193 Y86.57 E.56692
G1 X130.657 Y86.57 E.01685
G1 X143.93 Y99.843 E.59075
G1 X143.93 Y100.378 E.01685
G1 X130.122 Y86.57 E.61457
G1 X129.587 Y86.57 E.01685
G1 X143.93 Y100.913 E.6384
G1 X143.93 Y101.448 E.01685
G1 X129.052 Y86.57 E.66222
G1 X128.516 Y86.57 E.01685
G1 X143.93 Y101.984 E.68605
G1 X143.93 Y102.519 E.01685
M73 P6 R16
M73 Q6 S16
G1 X127.981 Y86.57 E.70987
G1 X127.446 Y86.57 E.01685
G1 X143.93 Y103.054 E.7337
G1 X143.93 Y103.589 E.01685
G1 X126.911 Y86.57 E.75752
G1 X126.375 Y86.57 E.01685
G1 X143.93 Y104.125 E.78134
G1 X143.93 Y104.66 E.01685
G1 X138.119 Y98.849 E.25864
G1 X138.189 Y99.33 E.01529
G1 X138.185 Y99.45 E.00379
G1 X143.93 Y105.195 E.2557
G1 X143.93 Y105.731 E.01685
G1 X138.154 Y99.954 E.25709
G1 X138.057 Y100.393 E.01413
G1 X143.93 Y106.266 E.2614
G1 X143.93 Y106.801 E.01685
G1 X137.904 Y100.775 E.26822
G1 X137.835 Y100.938 E.00557
G1 X137.716 Y101.122 E.0069
G1 X143.93 Y107.336 E.2766
G1 X143.93 Y107.872 E.01685
G1 X137.498 Y101.44 E.28629
G1 X137.242 Y101.719 E.01192
G1 X143.93 Y108.407 E.29767
G1 X143.93 Y108.942 E.01685
G1 X136.966 Y101.978 E.30996
G1 X136.688 Y102.235 E.01192
G1 X143.93 Y109.478 E.32234
G1 X143.93 Y110.013 E.01685
M73 P7 R16
M73 Q7 S16
G1 X136.41 Y102.493 E.33472
G1 X136.132 Y102.75 E.01192
G1 X143.93 Y110.548 E.3471
G1 X143.93 Y111.083 E.01685
G1 X135.854 Y103.007 E.35948
G1 X135.575 Y103.264 E.01192
G1 X143.93 Y111.619 E.37185
G1 X143.93 Y112.154 E.01685
G1 X135.297 Y103.521 E.38423
G1 X135.019 Y103.778 E.01192
G1 X143.93 Y112.689 E.39661
G1 X143.93 Y113.225 E.01685
G1 X134.741 Y104.036 E.40899
G1 X134.463 Y104.293 E.01192
G1 X143.93 Y113.76 E.42137
G1 X143.93 Y114.295 E.01685
G1 X134.185 Y104.55 E.43375
G1 X133.907 Y104.807 E.01192
G1 X143.93 Y114.83 E.44613
G1 X143.93 Y115.366 E.01685
G1 X133.629 Y105.064 E.4585
G1 X133.351 Y105.321 E.01192
G1 X143.93 Y115.901 E.47088
G1 X143.93 Y116.436 E.01685
G1 X133.072 Y105.578 E.48326
G1 X132.794 Y105.836 E.01192
G1 X143.93 Y116.971 E.49564
G1 X143.93 Y117.507 E.01685
G1 X132.516 Y106.093 E.50802
G1 X132.238 Y106.35 E.01192
M73 P8 R16
M73 Q8 S16
G1 X143.93 Y118.042 E.5204
G1 X143.93 Y118.577 E.01685
G1 X138.085 Y112.732 E.26017
G1 X138.168 Y113.107 E.0121
G1 X138.178 Y113.361 E.00798
G1 X143.93 Y119.113 E.25602
G1 X143.93 Y119.648 E.01685
G1 X138.156 Y113.874 E.257
G1 X138.078 Y114.331 E.0146
G1 X143.93 Y120.183 E.26047
G1 X143.93 Y120.718 E.01685
G1 X137.938 Y114.726 E.26672
G1 X137.748 Y115.072 E.01241
G1 X143.93 Y121.254 E.27514
G1 X143.93 Y121.789 E.01685
G1 X137.525 Y115.384 E.28507
G1 X137.28 Y115.674 E.01195
G1 X143.93 Y122.324 E.29601
G1 X143.93 Y122.86 E.01685
G1 X136.991 Y115.921 E.30884
G1 X136.826 Y116.05 E.0066
G1 X136.673 Y116.138 E.00555
G1 X143.93 Y123.395 E.32299
G1 X143.93 Y123.43 E.00111
G1 X143.43 Y123.43 E.01574
G1 X136.324 Y116.324 E.31629
G1 X135.921 Y116.456 E.01335
M73 P8 R15
G1 X142.895 Y123.43 E.31041
G1 X142.36 Y123.43 E.01685
G1 X135.469 Y116.539 E.30671
G1 X135.259 Y116.567 E.00664
G1 X134.952 Y116.558 E.00968
G1 X141.824 Y123.43 E.30588
G1 X141.289 Y123.43 E.01685
G1 X134.312 Y116.453 E.31055
G1 X133.549 Y116.225 E.02505
M73 Q8 S15
G1 X140.754 Y123.43 E.32067
G1 X140.218 Y123.43 E.01685
G1 X132.773 Y115.985 E.33139
G1 X131.997 Y115.744 E.02558
G1 X139.683 Y123.43 E.34211
G1 X139.148 Y123.43 E.01685
G1 X131.221 Y115.503 E.35283
G1 X130.444 Y115.262 E.02558
M73 P9 R15
M73 Q9 S15
G1 X138.613 Y123.43 E.36355
G1 X138.077 Y123.43 E.01685
G1 X129.668 Y115.021 E.37428
G1 X128.892 Y114.78 E.02558
G1 X137.542 Y123.43 E.385
G1 X137.007 Y123.43 E.01685
G1 X128.116 Y114.539 E.39572
G1 X127.538 Y114.36 E.01905
G1 X127.513 Y114.471 E.00359
G1 X136.472 Y123.43 E.39874
G1 X135.936 Y123.43 E.01685
G1 X127.414 Y114.908 E.37932
G1 X127.315 Y115.344 E.01408
G1 X135.401 Y123.43 E.35989
G1 X134.866 Y123.43 E.01685
G1 X127.216 Y115.781 E.34047
G1 X127.117 Y116.217 E.01408
G1 X134.33 Y123.43 E.32104
G1 X133.795 Y123.43 E.01685
G1 X127.019 Y116.654 E.30162
G1 X126.92 Y117.09 E.01408
G1 X133.26 Y123.43 E.28219
G1 X132.725 Y123.43 E.01685
G1 X126.821 Y117.526 E.26276
G1 X126.722 Y117.963 E.01408
G1 X132.189 Y123.43 E.24334
G1 X131.654 Y123.43 E.01685
G1 X126.623 Y118.399 E.22391
G1 X126.524 Y118.836 E.01408
G1 X131.119 Y123.43 E.20449
G1 X130.583 Y123.43 E.01685
G1 X126.426 Y119.272 E.18506
G1 X126.327 Y119.709 E.01408
G1 X130.048 Y123.43 E.16563
G1 X129.513 Y123.43 E.01685
G1 X126.228 Y120.145 E.14621
G1 X126.129 Y120.582 E.01408
G1 X128.978 Y123.43 E.12678
G1 X128.442 Y123.43 E.01685
G1 X126.03 Y121.018 E.10736
G1 X125.909 Y121.432 E.01358
G1 X127.907 Y123.43 E.08892
G1 X127.372 Y123.43 E.01685
G1 X125.764 Y121.822 E.07157
G1 X125.57 Y122.164 E.01236
G1 X126.836 Y123.43 E.05636
G1 X126.301 Y123.43 E.01685
G1 X125.343 Y122.472 E.04263
M73 Q10 S15
G1 X125.267 Y122.568 E.00385
G1 X125.078 Y122.742 E.00809
G1 X125.766 Y123.43 E.03063
G1 X125.231 Y123.43 E.01685
M73 P10 R15
G1 X124.786 Y122.985 E.0198
G1 X124.451 Y123.186 E.01228
G1 X124.695 Y123.43 E.01088
G1 X124.16 Y123.43 E.01685
G1 X123.959 Y123.229 E.00894
M204 S1000
;WIPE_START
G1 F8640
G1 X124.16 Y123.43 E-.06562
G1 X124.695 Y123.43 E-.1236
G1 X124.451 Y123.186 E-.07981
G1 X124.786 Y122.985 E-.09011
G1 X125.231 Y123.43 E-.14525
G1 X125.766 Y123.43 E-.1236
G1 X125.078 Y122.742 E-.22475
G1 X125.267 Y122.568 E-.05936
G1 X125.343 Y122.472 E-.02827
G1 X125.373 Y122.502 E-.00963
;WIPE_END
G1 E-.05 F2100
