; generated by PrusaSlicer 2.5.0+win64 on 2023-04-05 at 12:59:35 UTC


;
;
; 

; external perimeters extrusion width = 0.45mm
; perimeters extrusion width = 0.45mm
; infill extrusion width = 0.45mm
; solid infill extrusion width = 0.45mm
; top infill extrusion width = 0.40mm
; first layer extrusion width = 0.42mm

M73 P0 R11
M73 Q0 S11
M201 X1000 Y1000 Z200 E5000 ; sets maximum accelerations, mm/sec^2
M203 X200 Y200 Z12 E120 ; sets maximum feedrates, mm / sec
M204 P1250 R1250 T1250 ; sets acceleration (P, T) and retract acceleration (R), mm/sec^2
M205 X8.00 Y8.00 Z0.40 E4.50 ; sets the jerk limits, mm/sec
M205 S0 T0 ; sets the minimum extruding and travel feed rate, mm/sec
M107
;TYPE:Custom
M862.3 P "MK3S" ; printer model check
M862.1 P0.4 ; nozzle diameter check
M115 U3.11.0 ; tell printer latest fw version
G90 ; use absolute coordinates
M83 ; extruder relative mode
M104 S230 ; set extruder temp
M140 S85 ; set bed temp
M190 S85 ; wait for bed temp
M109 S230 ; wait for extruder temp
G28 W ; home all without mesh bed level
G80 ; mesh bed leveling

G1 Z0.2 F720
G1 Y-3 F1000 ; go outside print area
G92 E0
G1 X60 E9 F1000 ; intro line
G1 X100 E12.5 F1000 ; intro line

G92 E0
M221 S95

; Don't change E values below. Excessive value can damage the printer.
M907 E430 ; set extruder motor current
G21 ; set units to millimeters
G90 ; use absolute coordinates
M83 ; use relative distances for extrusion
M900 K0.08 ; Filament gcode LA 1.5
M900 K45 ; Filament gcode LA 1.0
M107
;LAYER_CHANGE
;Z:0.2
;HEIGHT:0.2
;BEFORE_LAYER_CHANGE
G92 E0.0
;0.2


G1 E-1 F2100
G1 Z.2 F720
;AFTER_LAYER_CHANGE
;0.2
G1 Z.4
G1 X105.015 Y84.193 F10800
G1 Z.2 F720
M73 Q1 S11
G1 E1 F2100
M204 S800
;TYPE:Skirt/Brim
;WIDTH:0.42
G1 F1200
G1 X106.06 Y83.317 E.04278
G1 X107 Y83.123 E.03008
M73 P1 R11
G1 X143 Y83.123 E1.12875
G1 X144.307 Y83.515 E.04278
G1 X145.183 Y84.56 E.04278
G1 X145.377 Y85.5 E.03008
G1 X145.377 Y124.5 E1.22282
G1 X144.985 Y125.807 E.04278
G1 X143.94 Y126.683 E.04278
G1 X143 Y126.877 E.03008
G1 X107 Y126.877 E1.12875
G1 X105.693 Y126.485 E.04278
G1 X104.817 Y125.44 E.04278
G1 X104.623 Y124.5 E.03008
G1 X104.623 Y85.5 E1.22282
G1 X104.997 Y84.25 E.0409
M204 S1000
; printing object horn_test_v2.stl id:0 copy 0
;WIPE_START
M73 P2 R11
M73 Q2 S11
G1 F8640
G1 X106.06 Y83.317 E-.32671
G1 X107 Y83.123 E-.22155
G1 X108.74 Y83.123 E-.40174
;WIPE_END
G1 E-.05 F2100
G1 Z.4 F720
G1 X142.213 Y123.713 F10800
G1 Z.2 F720
G1 E1 F2100
M204 S800
;TYPE:Perimeter
;WIDTH:0.419999
G1 F1200
G1 X126.254 Y123.713 E.50037
;WIDTH:0.4304
G1 X125.74 Y123.708 E.01656
G1 X126.228 Y123.548 E.01653
;WIDTH:0.419999
G1 X126.729 Y123.292 E.01764
G1 X127.117 Y123.013 E.01499
G1 X127.488 Y122.647 E.01632
G1 X127.796 Y122.228 E.01632
G1 X128.033 Y121.764 E.01633
G1 X128.204 Y121.235 E.01745
G1 X129.698 Y114.637 E.2121
G1 X136.158 Y116.642 E.2121
G1 X136.614 Y116.746 E.01465
G1 X137.133 Y116.786 E.01632
G1 X137.652 Y116.744 E.01633
G1 X138.158 Y116.62 E.01633
G1 X138.637 Y116.417 E.01632
G1 X139.079 Y116.142 E.01633
G1 X139.472 Y115.8 E.01632
G1 X139.806 Y115.4 E.01633
G1 X140.072 Y114.953 E.01633
G1 X140.265 Y114.469 E.01633
G1 X140.382 Y113.943 E.01691
G1 X140.41 Y113.441 E.01575
G1 X140.36 Y112.923 E.01633
G1 X140.228 Y112.419 E.01633
G1 X140.018 Y111.943 E.01633
G1 X139.736 Y111.505 E.01632
G1 X139.362 Y111.093 E.01745
G1 X134.396 Y106.5 E.2121
G1 X139.362 Y101.907 E.2121
G1 X139.681 Y101.565 E.01465
G1 X139.975 Y101.136 E.01633
G1 X140.197 Y100.665 E.01633
G1 X140.343 Y100.165 E.01633
G1 X140.407 Y99.648 E.01633
G1 X140.39 Y99.128 E.01633
G1 X140.29 Y98.617 E.01633
G1 X140.09 Y98.091 E.01764
G1 X139.856 Y97.674 E.01499
G1 X139.534 Y97.265 E.01633
G1 X139.15 Y96.913 E.01633
G1 X138.716 Y96.625 E.01633
G1 X138.201 Y96.398 E.01764
G1 X137.74 Y96.272 E.01499
G1 X137.223 Y96.215 E.01632
G1 X136.703 Y96.241 E.01633
G1 X136.158 Y96.358 E.01745
G1 X129.698 Y98.363 E.2121
G1 X128.204 Y91.765 E.2121
G1 X128.067 Y91.319 E.01465
G1 X127.842 Y90.849 E.01633
G1 X127.545 Y90.421 E.01632
G1 X127.185 Y90.045 E.01633
G1 X126.77 Y89.731 E.01633
G1 X126.31 Y89.486 E.01632
G1 X125.818 Y89.317 E.01633
G1 X125.305 Y89.228 E.01632
G1 X124.784 Y89.221 E.01633
G1 X124.261 Y89.297 E.01659
G1 X123.772 Y89.452 E.01606
G1 X123.306 Y89.684 E.01633
G1 X122.883 Y89.987 E.01633
G1 X122.487 Y90.387 E.01764
G1 X122.204 Y90.772 E.01499
G1 X121.967 Y91.236 E.01633
G1 X121.796 Y91.765 E.01745
G1 X120.302 Y98.363 E.2121
G1 X113.842 Y96.358 E.2121
G1 X113.386 Y96.254 E.01465
M73 Q3 S11
G1 X112.867 Y96.214 E.01632
G1 X112.348 Y96.256 E.01633
G1 X111.842 Y96.38 E.01633
G1 X111.363 Y96.583 E.01633
G1 X110.921 Y96.858 E.01633
G1 X110.528 Y97.2 E.01632
G1 X110.194 Y97.6 E.01633
G1 X109.928 Y98.047 E.01633
G1 X109.735 Y98.531 E.01633
G1 X109.622 Y99.039 E.01633
G1 X109.59 Y99.559 E.01632
G1 X109.64 Y100.077 E.01633
M73 P3 R11
G1 X109.772 Y100.581 E.01633
G1 X109.982 Y101.057 E.01633
G1 X110.264 Y101.495 E.01632
G1 X110.638 Y101.907 E.01745
G1 X115.604 Y106.5 E.2121
G1 X110.638 Y111.093 E.2121
G1 X110.319 Y111.435 E.01465
G1 X110.025 Y111.864 E.01633
G1 X109.803 Y112.335 E.01633
G1 X109.657 Y112.835 E.01632
G1 X109.593 Y113.352 E.01633
G1 X109.61 Y113.872 E.01633
G1 X109.724 Y114.423 E.01764
G1 X109.889 Y114.872 E.01499
G1 X110.144 Y115.326 E.01633
G1 X110.466 Y115.735 E.01632
G1 X110.85 Y116.087 E.01633
G1 X111.284 Y116.375 E.01633
G1 X111.799 Y116.602 E.01764
G1 X112.26 Y116.728 E.01499
G1 X112.777 Y116.785 E.01633
G1 X113.297 Y116.759 E.01633
G1 X113.842 Y116.642 E.01745
G1 X120.302 Y114.637 E.2121
G1 X121.796 Y121.235 E.2121
G1 X121.967 Y121.764 E.01745
G1 X122.204 Y122.228 E.01633
G1 X122.512 Y122.647 E.01632
G1 X122.883 Y123.013 E.01632
G1 X123.306 Y123.316 E.01633
G1 X123.772 Y123.548 E.01632
;WIDTH:0.428968
G1 X124.268 Y123.708 E.01674
G1 X123.746 Y123.713 E.01677
;WIDTH:0.419999
G1 X107.787 Y123.713 E.50038
G1 X107.787 Y86.287 E1.17346
G1 X142.213 Y86.287 E1.0794
G1 X142.213 Y91.25 E.15561
G1 X142.213 Y123.653 E1.01597
M204 S1000
G1 X142.59 Y124.09 F10800
M204 S800
;TYPE:External perimeter
M73 P4 R11
M73 Q4 S11
G1 F1200
G1 X107.41 Y124.09 E1.10304
G1 X107.41 Y85.91 E1.19711
G1 X142.59 Y85.91 E1.10304
G1 X142.59 Y124.03 E1.19522
M204 S1000
G1 X142.205 Y123.981 F10800
;WIPE_START
M73 P5 R11
M73 Q5 S11
G1 F8640
G1 X138.476 Y124.037 E-.95
;WIPE_END
G1 E-.05 F2100
G1 Z.4 F720
G1 X116.16 Y106.5 F10800
G1 Z.2 F720
G1 E1 F2100
M204 S800
G1 F1200
G1 X110.894 Y101.631 E.22488
G1 X110.578 Y101.286 E.01465
G1 X110.325 Y100.901 E.01446
G1 X110.136 Y100.48 E.01446
G1 X110.015 Y100.035 E.01446
G1 X109.967 Y99.577 E.01446
G1 X109.991 Y99.116 E.01446
G1 X110.088 Y98.666 E.01446
G1 X110.254 Y98.236 E.01446
G1 X110.487 Y97.838 E.01446
G1 X110.78 Y97.481 E.01446
G1 X111.125 Y97.175 E.01446
G1 X111.514 Y96.928 E.01446
G1 X111.937 Y96.745 E.01446
G1 X112.384 Y96.632 E.01446
G1 X112.843 Y96.59 E.01446
G1 X113.303 Y96.621 E.01446
G1 X113.73 Y96.718 E.01372
G1 X120.58 Y98.844 E.22488
G1 X122.164 Y91.849 E.22488
G1 X122.304 Y91.403 E.01465
G1 X122.511 Y90.991 E.01446
G1 X122.759 Y90.648 E.01326
G1 X123.106 Y90.29 E.01563
G1 X123.479 Y90.019 E.01446
G1 X123.89 Y89.81 E.01446
G1 X124.329 Y89.668 E.01446
G1 X124.784 Y89.598 E.01446
G1 X125.245 Y89.6 E.01446
G1 X125.7 Y89.675 E.01446
G1 X126.138 Y89.821 E.01446
G1 X126.546 Y90.035 E.01446
G1 X126.916 Y90.31 E.01446
G1 X127.238 Y90.64 E.01446
G1 X127.504 Y91.017 E.01446
G1 X127.707 Y91.431 E.01446
G1 X127.836 Y91.849 E.01371
G1 X129.42 Y98.844 E.22488
G1 X136.27 Y96.718 E.22488
G1 X136.726 Y96.617 E.01465
G1 X137.187 Y96.591 E.01446
G1 X137.645 Y96.637 E.01446
G1 X138.054 Y96.745 E.01326
G1 X138.512 Y96.942 E.01563
G1 X138.899 Y97.194 E.01446
G1 X139.241 Y97.503 E.01446
G1 X139.53 Y97.862 E.01446
G1 X139.74 Y98.229 E.01326
G1 X139.921 Y98.694 E.01563
G1 X140.013 Y99.146 E.01446
G1 X140.033 Y99.607 E.01446
G1 X139.979 Y100.065 E.01446
G1 X139.854 Y100.508 E.01446
G1 X139.661 Y100.927 E.01446
G1 X139.403 Y101.31 E.01446
G1 X139.106 Y101.631 E.01371
G1 X133.84 Y106.5 E.22488
G1 X139.106 Y111.369 E.22488
G1 X139.422 Y111.714 E.01465
G1 X139.675 Y112.099 E.01446
G1 X139.864 Y112.52 E.01446
G1 X139.985 Y112.965 E.01446
G1 X140.033 Y113.423 E.01446
G1 X140.009 Y113.884 E.01446
G1 X139.912 Y114.334 E.01446
G1 X139.746 Y114.764 E.01446
G1 X139.513 Y115.162 E.01446
G1 X139.22 Y115.519 E.01446
G1 X138.875 Y115.825 E.01446
G1 X138.486 Y116.072 E.01446
G1 X138.063 Y116.255 E.01446
G1 X137.616 Y116.368 E.01446
G1 X137.157 Y116.41 E.01446
G1 X136.697 Y116.379 E.01446
G1 X136.27 Y116.282 E.01372
G1 X129.42 Y114.156 E.22488
G1 X127.836 Y121.151 E.22488
G1 X127.696 Y121.597 E.01465
M73 Q6 S11
G1 X127.489 Y122.009 E.01446
G1 X127.219 Y122.383 E.01446
G1 X126.894 Y122.71 E.01446
G1 X126.552 Y122.959 E.01326
G1 X126.11 Y123.19 E.01563
G1 X125.671 Y123.332 E.01446
G1 X125.216 Y123.402 E.01446
G1 X124.755 Y123.4 E.01446
M73 P6 R11
G1 X124.3 Y123.325 E.01446
G1 X123.862 Y123.179 E.01446
G1 X123.454 Y122.965 E.01446
G1 X123.084 Y122.69 E.01446
G1 X122.762 Y122.36 E.01446
G1 X122.496 Y121.983 E.01446
G1 X122.293 Y121.569 E.01446
G1 X122.164 Y121.151 E.01371
G1 X120.58 Y114.156 E.22488
G1 X113.73 Y116.282 E.22488
G1 X113.274 Y116.383 E.01465
G1 X112.813 Y116.409 E.01446
G1 X112.328 Y116.356 E.0153
G1 X111.946 Y116.255 E.01241
G1 X111.488 Y116.058 E.01563
G1 X111.101 Y115.806 E.01446
G1 X110.759 Y115.497 E.01446
G1 X110.47 Y115.138 E.01446
G1 X110.242 Y114.737 E.01446
G1 X110.093 Y114.342 E.01326
G1 X109.987 Y113.854 E.01563
G1 X109.967 Y113.393 E.01446
G1 X110.021 Y112.935 E.01446
G1 X110.146 Y112.492 E.01446
G1 X110.339 Y112.073 E.01446
G1 X110.596 Y111.69 E.01446
G1 X110.894 Y111.369 E.01371
G1 X116.116 Y106.541 E.223
M204 S1000
G1 X115.772 Y106.402 F10800
;WIPE_START
G1 F8640
G1 X113.118 Y103.722 E-.95
;WIPE_END
G1 E-.05 F2100
G1 Z.4 F720
G1 X125.74 Y123.708 F10800
G1 Z.2 F720
G1 E1 F2100
M204 S800
;TYPE:Perimeter
;WIDTH:0.4304
G1 F1200
G1 X125.478 Y123.727 E.00847
;WIDTH:0.39205
G1 X125.216 Y123.746 E.00763
;WIDTH:0.360424
G1 X124.7 Y123.743 E.01362
;WIDTH:0.394696
G1 X124.484 Y123.726 E.00633
;WIDTH:0.428968
G1 X124.268 Y123.708 E.00694
M204 S1000
;WIPE_START
G1 F8640
G1 X124.484 Y123.726 E-.04995
G1 X124.7 Y123.743 E-.04995
G1 X125.216 Y123.746 E-.11913
G1 X125.478 Y123.727 E-.06072
G1 X125.74 Y123.708 E-.06072
;WIPE_END
G1 E-.65954 F2100
G1 Z.4 F720
G1 X142.1 Y87.163 F10800
G1 Z.2 F720
G1 E1 F2100
M204 S800
;TYPE:Solid infill
;WIDTH:0.420085
G1 F1200
G1 X141.507 Y86.57 E.02629
G1 X140.974 Y86.57 E.01673
G1 X141.93 Y87.526 E.04242
G1 X141.93 Y88.06 E.01673
G1 X140.44 Y86.57 E.06608
G1 X139.907 Y86.57 E.01673
G1 X141.93 Y88.593 E.08973
G1 X141.93 Y89.127 E.01673
G1 X139.373 Y86.57 E.11339
G1 X138.84 Y86.57 E.01673
G1 X141.93 Y89.66 E.13705
G1 X141.93 Y90.193 E.01673
G1 X138.307 Y86.57 E.16071
G1 X137.773 Y86.57 E.01673
G1 X141.93 Y90.727 E.18436
G1 X141.93 Y91.26 E.01673
G1 X137.24 Y86.57 E.20802
G1 X136.707 Y86.57 E.01673
G1 X141.93 Y91.793 E.23168
G1 X141.93 Y92.327 E.01673
G1 X136.173 Y86.57 E.25533
G1 X135.64 Y86.57 E.01673
G1 X141.93 Y92.86 E.27899
G1 X141.93 Y93.394 E.01673
G1 X135.106 Y86.57 E.30265
G1 X134.573 Y86.57 E.01673
G1 X141.93 Y93.927 E.3263
M73 Q7 S11
G1 X141.93 Y94.46 E.01673
M73 P7 R11
G1 X134.04 Y86.57 E.34996
G1 X133.506 Y86.57 E.01673
G1 X141.93 Y94.994 E.37362
G1 X141.93 Y95.527 E.01673
G1 X132.973 Y86.57 E.39727
G1 X132.439 Y86.57 E.01673
G1 X141.93 Y96.061 E.42093
G1 X141.93 Y96.594 E.01673
G1 X131.906 Y86.57 E.44459
G1 X131.373 Y86.57 E.01673
G1 X141.93 Y97.127 E.46824
G1 X141.93 Y97.661 E.01673
G1 X130.839 Y86.57 E.4919
G1 X130.306 Y86.57 E.01673
G1 X141.93 Y98.194 E.51556
G1 X141.93 Y98.728 E.01673
G1 X129.772 Y86.57 E.53921
G1 X129.239 Y86.57 E.01673
M73 P7 R10
M73 Q8 S11
G1 X141.93 Y99.261 E.56287
G1 X141.93 Y99.794 E.01673
M73 P8 R10
G1 X140.505 Y98.369 E.06323
M73 Q8 S10
G1 X140.351 Y97.981 E.01309
G1 X140.098 Y97.527 E.01628
G1 X139.75 Y97.082 E.01773
G1 X139.335 Y96.698 E.01773
G1 X138.864 Y96.384 E.01775
G1 X138.259 Y96.123 E.02067
G1 X128.706 Y86.57 E.42369
G1 X128.172 Y86.57 E.01673
G1 X137.568 Y95.966 E.41674
G1 X137.121 Y95.931 E.01406
G1 X137.008 Y95.939 E.00356
G1 X127.639 Y86.57 E.41554
G1 X127.105 Y86.57 E.01673
G1 X136.521 Y95.985 E.41759
G1 X136.088 Y96.086 E.01393
G1 X126.572 Y86.57 E.42206
G1 X126.039 Y86.57 E.01673
G1 X135.681 Y96.212 E.42766
G1 X135.274 Y96.339 E.01337
G1 X125.505 Y86.57 E.43326
G1 X124.972 Y86.57 E.01673
G1 X134.867 Y96.465 E.43886
G1 X134.46 Y96.591 E.01337
G1 X124.439 Y86.57 E.44445
G1 X123.905 Y86.57 E.01673
M73 P9 R10
M73 Q9 S10
G1 X134.052 Y96.717 E.45005
G1 X133.645 Y96.843 E.01337
G1 X128.469 Y91.667 E.22957
G1 X128.629 Y92.36 E.0223
G1 X133.238 Y96.97 E.20444
G1 X132.831 Y97.096 E.01337
G1 X128.785 Y93.05 E.17945
G1 X128.941 Y93.739 E.02217
G1 X132.424 Y97.222 E.15447
G1 X132.016 Y97.348 E.01337
G1 X129.097 Y94.429 E.12948
G1 X129.253 Y95.118 E.02217
G1 X131.609 Y97.474 E.1045
G1 X131.202 Y97.601 E.01337
G1 X129.409 Y95.808 E.07952
G1 X129.565 Y96.497 E.02217
G1 X130.795 Y97.727 E.05453
G1 X130.388 Y97.853 E.01337
G1 X129.722 Y97.187 E.02955
G1 X129.878 Y97.876 E.02217
G1 X130.116 Y98.115 E.01058
M204 S1000
;WIPE_START
G1 F8640
G1 X129.878 Y97.876 E-.07789
G1 X129.722 Y97.187 E-.16324
G1 X130.388 Y97.853 E-.21755
G1 X130.795 Y97.727 E-.09843
G1 X129.592 Y96.524 E-.39288
;WIPE_END
G1 E-.05 F2100
G1 Z.4 F720
G1 X140.45 Y98.848 F10800
G1 Z.2 F720
G1 E1 F2100
M204 S800
G1 F1200
G1 X141.93 Y100.328 E.06564
G1 X141.93 Y100.861 E.01673
G1 X140.687 Y99.618 E.05516
G1 X140.639 Y100.103 E.01531
G1 X141.93 Y101.395 E.05726
G1 X141.93 Y101.928 E.01673
G1 X140.529 Y100.527 E.06215
G1 X140.457 Y100.777 E.00816
G1 X140.389 Y100.92 E.00498
G1 X141.93 Y102.461 E.06836
G1 X141.93 Y102.995 E.01673
G1 X140.217 Y101.281 E.076
G1 X140 Y101.598 E.01203
G1 X141.93 Y103.528 E.08562
G1 X141.93 Y104.061 E.01673
G1 X139.762 Y101.893 E.09617
G1 X139.5 Y102.165 E.01183
G1 X141.93 Y104.595 E.10776
G1 X141.93 Y105.128 E.01673
G1 X139.223 Y102.421 E.12006
G1 X138.946 Y102.678 E.01184
G1 X141.93 Y105.662 E.13235
G1 X141.93 Y106.195 E.01673
G1 X138.669 Y102.934 E.14464
G1 X138.392 Y103.19 E.01184
G1 X141.93 Y106.728 E.15693
G1 X141.93 Y107.262 E.01673
G1 X138.115 Y103.446 E.16922
G1 X137.838 Y103.703 E.01184
G1 X141.93 Y107.795 E.18151
G1 X141.93 Y108.329 E.01673
M73 Q10 S10
G1 X137.56 Y103.959 E.1938
G1 X137.283 Y104.215 E.01184
M73 P10 R10
G1 X141.93 Y108.862 E.2061
G1 X141.93 Y109.395 E.01673
G1 X137.006 Y104.471 E.21839
G1 X136.729 Y104.728 E.01184
G1 X141.93 Y109.929 E.23068
G1 X141.93 Y110.462 E.01673
G1 X136.452 Y104.984 E.24297
G1 X136.175 Y105.24 E.01184
G1 X141.93 Y110.996 E.25526
G1 X141.93 Y111.529 E.01673
G1 X135.898 Y105.496 E.26755
G1 X135.62 Y105.753 E.01184
G1 X141.93 Y112.062 E.27984
G1 X141.93 Y112.596 E.01673
G1 X135.343 Y106.009 E.29213
G1 X135.066 Y106.265 E.01184
G1 X141.93 Y113.129 E.30443
G1 X141.93 Y113.663 E.01673
G1 X140.427 Y112.159 E.06669
G1 X140.617 Y112.766 E.01996
G1 X140.632 Y112.898 E.00415
G1 X141.93 Y114.196 E.05758
G1 X141.93 Y114.729 E.01673
G1 X140.691 Y113.49 E.05498
G1 X140.66 Y113.993 E.0158
G1 X141.93 Y115.263 E.05633
G1 X141.93 Y115.796 E.01673
G1 X140.562 Y114.428 E.06069
G1 X140.531 Y114.564 E.00437
G1 X140.43 Y114.829 E.00891
G1 X141.93 Y116.33 E.06655
G1 X141.93 Y116.863 E.01673
G1 X140.256 Y115.189 E.07425
G1 X140.057 Y115.524 E.01221
G1 X141.93 Y117.396 E.08306
G1 X141.93 Y117.93 E.01673
G1 X139.818 Y115.818 E.09366
G1 X139.666 Y116.006 E.0076
G1 X139.562 Y116.095 E.00428
G1 X141.93 Y118.463 E.10501
G1 X141.93 Y118.996 E.01673
G1 X139.276 Y116.343 E.1177
G1 X138.953 Y116.552 E.01209
G1 X141.93 Y119.53 E.13205
G1 X141.93 Y120.063 E.01673
G1 X138.606 Y116.74 E.14741
G1 X138.35 Y116.852 E.00879
G1 X138.221 Y116.888 E.00418
G1 X141.93 Y120.597 E.1645
G1 X141.93 Y121.13 E.01673
G1 X137.804 Y117.004 E.18301
G1 X137.317 Y117.05 E.01533
M73 Q11 S10
G1 X141.93 Y121.663 E.2046
G1 X141.93 Y122.197 E.01673
M73 P11 R10
G1 X136.774 Y117.041 E.22866
G1 X136.558 Y117.024 E.00681
G1 X136.124 Y116.924 E.01399
G1 X141.93 Y122.73 E.25753
G1 X141.93 Y123.264 E.01673
G1 X135.355 Y116.689 E.2916
